build/system/AdminSolid.svg

<svg xmlns="http://www.w3.org/2000/svg" fill="none" viewBox="0 0 24 24" focusable="false"><path d="M0 0H24V24H0z"/><path fill="#74767B" fill-rule="evenodd" d="M18.9445 6.87195C21.897 10.8703 21.0491 16.5051 17.0508 19.4576C13.0524 22.4102 7.4176 21.5623 4.46508 17.5639C1.51257 13.5656 2.3604 7.93078 6.35877 4.97827C10.3571 2.02575 15.9919 2.87359 18.9445 6.87195ZM16.2785 18.4119C19.6993 15.8858 20.4247 11.065 17.8987 7.64419C15.3727 4.22339 10.5518 3.49803 7.131 6.02405C4.4622 7.99477 3.43401 11.3623 4.31044 14.372L6.77441 12.5525C6.95805 12.4169 7.06043 12.2001 7.07262 11.9721C7.14409 10.6367 7.7896 9.34229 8.94944 8.48583C10.3485 7.45274 12.1362 7.32235 13.6163 7.98989C14.0471 8.18422 14.0522 8.75429 13.672 9.03506L11.1368 10.9071C10.8258 11.1368 10.7599 11.5751 10.9895 11.8861L11.8112 12.9988C12.0408 13.3098 12.4791 13.3757 12.7901 13.1461L15.3252 11.2741C15.7055 10.9933 16.2488 11.1659 16.3077 11.6349C16.5101 13.2458 15.8594 14.9159 14.4604 15.9489C13.3005 16.8054 11.8734 17.0415 10.576 16.7167C10.3546 16.6613 10.1172 16.6953 9.93353 16.8309L7.4694 18.6505C10.0881 20.3743 13.6095 20.3828 16.2785 18.4119Z"/></svg>

<svg xmlns="http://www.w3.org/2000/svg" fill="none" viewBox="0 0 24 24" focusable="false"><path fill="#74767B" fill-rule="evenodd" d="M18.94 6.87c2.95 4 2.1 9.63-1.89 12.58-4 2.96-9.64 2.11-12.59-1.89S2.36 7.93 6.35 4.97c4-2.95 9.64-2.1 12.59 1.9m-2.67 11.54c3.42-2.53 4.15-7.35 1.62-10.77A7.687 7.687 0 0 0 7.13 6.02a7.7 7.7 0 0 0-2.82 8.35l2.46-1.82c.18-.14.29-.35.3-.58.07-1.34.71-2.63 1.87-3.49a4.67 4.67 0 0 1 4.67-.5c.43.2.44.77.06 1.05l-2.54 1.87c-.31.23-.38.67-.15.98l.83 1.11c.23.31.66.38.98.15l2.53-1.87c.38-.28.92-.11.98.36.21 1.61-.45 3.28-1.84 4.31a4.61 4.61 0 0 1-3.89.77.76.76 0 0 0-.64.12l-2.47 1.82a7.71 7.71 0 0 0 8.81-.24"/></svg>
